; generated by Slic3r 0.9.8-dev on 2012-12-21 at 00:27:33

; layer_height = 0.24
; perimeters = 2
; top_solid_layers = 2
; bottom_solid_layers = 2
; fill_density = 0.25
; perimeter_speed = 30
; infill_speed = 40
; travel_speed = 100
; scale = 1
; nozzle_diameter = 0.5
; filament_diameter = 2.85
; extrusion_multiplier = 0.99
; perimeters extrusion width = 0.70mm
; infill extrusion width = 0.70mm
; first layer extrusion width = 0.70mm

M107
G28 ; home all axes
G90 ; use absolute coordinates
G21 ; set units to millimeters
G92 E0
M82 ; use absolute distances for extrusion
G1 F3600.000 E-1.50000
G92 E0
G1 Z0.144 F6000.000
G1 X95.616 Y77.933
G1 F3600.000 E1.50000
G1 X94.933 Y78.615 F450.000 E1.51444
G1 X93.999 Y78.865 E1.52889
G1 X93.070 Y78.618 E1.54327
G1 X92.384 Y77.933 E1.55777
G1 X92.135 Y77.000 E1.57220
G1 X92.384 Y76.066 E1.58665
G1 X93.070 Y75.381 E1.60114
G1 X93.999 Y75.134 E1.61552
G1 X94.933 Y75.384 E1.62998
G1 X95.616 Y76.066 E1.64441
G1 X95.865 Y77.000 E1.65886
G1 X95.642 Y77.836 E1.67180
G1 X95.616 Y77.933 E1.67330
G1 X95.899 Y78.539 F6000.000
G1 F3600.000 E0.17330
G92 E0
G1 X94.001 Y101.134 F6000.000
G1 F3600.000 E1.50000
G1 X94.933 Y101.384 F450.000 E1.51443
G1 X95.615 Y102.065 E1.52885
G1 X95.866 Y103.001 E1.54333
G1 X95.616 Y103.933 E1.55775
G1 X94.933 Y104.615 E1.57219
G1 X94.001 Y104.865 E1.58662
G1 X93.066 Y104.614 E1.60110
G1 X92.384 Y103.933 E1.61551
G1 X92.135 Y103.000 E1.62995
G1 X92.384 Y102.066 E1.64439
G1 X93.066 Y101.385 E1.65881
G1 X93.904 Y101.160 E1.67178
G1 X94.001 Y101.134 E1.67328
G1 X94.384 Y100.586 F6000.000
G1 X95.982 Y106.481
G1 X92.018 Y106.481 F450.000 E1.73255
G1 X92.018 Y104.513 E1.76198
G1 X92.718 Y105.213 E1.77678
G1 X94.002 Y105.558 E1.79666
G1 X95.279 Y105.215 E1.81643
G1 X95.982 Y104.513 E1.83129
G1 X95.982 Y106.381 E1.85923
G1 X95.982 Y106.481 E1.86073
G1 F3600.000 E0.36073
G92 E0
G1 X91.925 Y78.420 F6000.000
G1 F3600.000 E1.50000
G1 X92.728 Y79.222 F540.000 E1.51697
G1 X93.998 Y79.557 E1.53662
G1 X95.279 Y79.215 E1.55644
G1 X95.982 Y78.513 E1.57130
G1 X95.982 Y85.135 E1.67032
G1 X95.677 Y85.706 E1.67999
G1 X94.964 Y88.056 E1.71671
G1 X94.723 Y90.499 E1.75343
G1 X94.964 Y92.943 E1.79015
G1 X95.677 Y95.293 E1.82687
G1 X95.982 Y95.864 E1.83655
G1 X95.982 Y101.486 E1.92061
G1 X95.279 Y100.784 E1.93547
G1 X94.002 Y100.441 E1.95524
G1 X92.718 Y100.786 E1.97512
G1 X92.018 Y101.486 E1.98992
G1 X92.018 Y95.128 E2.08499
G1 X84.018 Y90.999 E2.21960
G1 X84.018 Y82.500 E2.34668
G1 X91.836 Y78.466 E2.47822
G1 X91.925 Y78.420 E2.47972
G1 X92.018 Y75.486 F6000.000
G1 X92.018 Y73.519 F450.000 E2.50914
G1 X95.982 Y73.519 E2.56841
G1 X95.982 Y75.486 E2.59783
G1 X95.279 Y74.784 E2.61269
G1 X93.998 Y74.442 E2.63251
G1 X92.728 Y74.777 E2.65216
G1 X92.089 Y75.415 E2.66566
G1 X92.018 Y75.486 E2.66716
G1 X91.349 Y77.964 F6000.000
G1 X91.349 Y72.849 F540.000 E2.74363
G1 X96.651 Y72.849 E2.82291
G1 X96.651 Y85.303 E3.00911
G1 X96.298 Y85.963 E3.02030
G1 X95.623 Y88.187 E3.05505
G1 X95.395 Y90.499 E3.08980
G1 X95.623 Y92.812 E3.12455
G1 X96.298 Y95.036 E3.15930
G1 X96.651 Y95.696 E3.17049
G1 X96.651 Y107.150 E3.34176
G1 X91.349 Y107.150 E3.42104
G1 X91.349 Y95.535 E3.59471
G1 X83.349 Y91.407 E3.72932
G1 X83.349 Y82.092 E3.86859
G1 X91.260 Y78.010 E4.00170
G1 X91.349 Y77.964 E4.00320
G1 X92.010 Y77.858 F6000.000
G1 F3600.000 E2.50320
G92 E0
G1 X84.474 Y85.229 F6000.000
G1 F3600.000 E1.50000
G1 X95.526 Y96.281 F900.000 E1.73490
G1 X94.968 Y94.772 E1.75908
G1 X84.474 Y84.278 E1.98211
G1 X84.474 Y83.327 E1.99641
G1 X94.553 Y93.406 E2.21063
G1 X94.422 Y92.324 E2.22701
G1 X84.684 Y82.586 E2.43398
G1 X85.312 Y82.262 E2.44459
G1 X94.318 Y91.269 E2.63603
G1 X94.304 Y90.303 E2.65054
G1 X85.939 Y81.939 E2.82833
G1 X86.566 Y81.615 E2.83894
G1 X94.389 Y89.438 E3.00521
G1 X94.474 Y88.572 E3.01828
G1 X87.194 Y81.291 E3.17303
G1 X87.821 Y80.967 E3.18364
G1 X94.628 Y87.774 E3.32830
G1 X94.849 Y87.044 E3.33976
G1 X88.448 Y80.644 E3.47580
G1 X89.076 Y80.320 E3.48641
G1 X95.071 Y86.315 E3.61383
G1 X95.303 Y85.596 E3.62517
G1 X89.703 Y79.996 E3.74420
G1 X90.331 Y79.672 E3.75481
G1 X95.526 Y84.868 E3.86523
G1 X95.526 Y83.916 E3.87953
G1 X90.958 Y79.349 E3.97662
G1 X92.174 Y79.614 E3.99533
G1 X95.526 Y82.965 E4.06656
G1 X95.526 Y82.014 E4.08085
G1 X93.464 Y79.952 E4.12469
G1 X94.349 Y79.886 E4.13802
G1 X95.526 Y81.063 E4.16304
G1 X95.526 Y80.112 E4.17734
G1 X95.100 Y79.686 E4.18639
G1 F3600.000 E2.68639
G92 E0
G1 X92.900 Y100.313 F6000.000
G1 F3600.000 E1.50000
G1 X92.474 Y99.887 F900.000 E1.50905
G1 X92.474 Y98.936 E1.52335
G1 X93.651 Y100.112 E1.54835
G1 X94.537 Y100.048 E1.56171
G1 X92.474 Y97.985 E1.60556
G1 X92.474 Y97.034 E1.61985
G1 X95.526 Y100.085 E1.68471
G1 X95.526 Y99.134 E1.69901
G1 X92.474 Y96.083 E1.76387
G1 X92.474 Y95.131 E1.77816
G1 X95.526 Y98.183 E1.84302
G1 X95.526 Y97.232 E1.85731
G1 X84.474 Y86.180 E2.09221
G1 X84.474 Y87.131 E2.10650
G1 X91.610 Y94.267 E2.25817
G1 X89.645 Y93.253 E2.29140
G1 X84.474 Y88.083 E2.40130
G1 X84.474 Y89.034 E2.41559
G1 X87.679 Y92.239 E2.48371
G1 X85.714 Y91.224 E2.51695
G1 X84.474 Y89.985 E2.54330
G1 F3600.000 E1.04330
G92 E0
G1 X92.649 Y106.094 F6000.000
G1 F3600.000 E1.50000
G1 X92.406 Y105.850 F360.000 E1.50571
G1 X93.456 Y105.850 E1.52312
G1 X93.699 Y106.094 E1.52883
G1 X94.544 Y106.094 F6000.000
G1 X94.301 Y105.850 F360.000 E1.53245
G1 X94.826 Y105.710 E1.53816
G1 X95.209 Y106.094 E1.54386
G1 X95.594 Y105.813 E1.54887
G1 X95.351 Y105.570 E1.55249
G1 F3600.000 E0.05249
G92 E0
G1 X92.649 Y74.423 F6000.000
G1 F3600.000 E1.50000
G1 X92.406 Y74.180 F360.000 E1.50359
G1 X92.792 Y73.906 E1.50852
G1 X93.175 Y74.289 E1.51416
G1 X93.452 Y73.906 E1.51908
G1 X93.695 Y74.150 E1.52267
G1 X94.548 Y74.150 F6000.000
G1 X94.305 Y73.907 F360.000 E1.52836
G1 X95.351 Y73.906 E1.54565
G1 X95.594 Y74.150 E1.55134
G1 F3600.000 E0.05134
G92 E0
G1 Z0.384 F6000.000
G1 X94.933 Y75.384
G1 F3600.000 E1.50000
G1 X95.616 Y76.066 F1500.000 E1.52363
G1 X95.865 Y76.999 E1.54727
G1 X95.616 Y77.933 E1.57091
G1 X94.933 Y78.615 E1.59454
G1 X94.000 Y78.865 E1.61817
G1 X93.067 Y78.615 E1.64181
G1 X92.384 Y77.933 E1.66544
G1 X92.135 Y76.999 E1.68908
G1 X92.384 Y76.066 E1.71272
G1 X93.067 Y75.384 E1.73635
G1 X94.000 Y75.134 E1.75998
G1 X94.838 Y75.358 E1.78121
G1 X94.933 Y75.384 E1.78362
G1 X95.529 Y75.106 F6000.000
G1 F3600.000 E0.28362
G92 E0
G1 X94.000 Y101.134 F6000.000
G1 F3600.000 E1.50000
G1 X94.933 Y101.384 F1500.000 E1.52364
G1 X95.071 Y101.522 E1.52842
G1 X95.616 Y102.066 E1.54727
G1 X95.865 Y102.999 E1.57091
G1 X95.616 Y103.933 E1.59454
G1 X94.933 Y104.615 E1.61817
G1 X94.189 Y104.814 E1.63703
G1 X94.000 Y104.865 E1.64181
G1 X93.067 Y104.615 E1.66545
G1 X92.384 Y103.933 E1.68908
G1 X92.135 Y102.999 E1.71272
G1 X92.384 Y102.066 E1.73635
G1 X93.067 Y101.384 E1.75998
G1 X93.905 Y101.160 E1.78121
G1 X94.000 Y101.134 E1.78362
G1 X94.377 Y100.596 F6000.000
G1 X92.006 Y104.484
G1 X92.727 Y105.205 F1500.000 E1.80857
G1 X94.000 Y105.545 E1.84082
G1 X95.273 Y105.205 E1.87307
G1 X95.994 Y104.484 E1.89802
G1 X95.994 Y106.493 E1.94720
G1 X92.006 Y106.493 E2.04479
G1 X92.006 Y104.582 E2.09156
G1 X92.006 Y104.484 E2.09397
G1 X92.006 Y101.515 F6000.000
G1 X92.006 Y95.135 F1800.000 E2.25012
G1 X84.006 Y91.006 E2.47043
G1 X84.006 Y82.493 E2.67879
G1 X91.927 Y78.405 E2.89693
G1 X92.727 Y79.205 E2.92461
G1 X94.000 Y79.545 E2.95686
G1 X95.273 Y79.205 E2.98911
G1 X95.994 Y78.484 E3.01406
G1 X95.994 Y85.138 E3.17691
G1 X95.688 Y85.710 E3.19279
G1 X94.975 Y88.058 E3.25283
G1 X94.735 Y90.499 E3.31287
G1 X94.975 Y92.941 E3.37291
G1 X95.688 Y95.289 E3.43296
G1 X95.994 Y95.861 E3.44884
G1 X95.994 Y101.515 E3.58721
G1 X95.273 Y100.794 E3.61216
G1 X94.000 Y100.454 E3.64441
G1 X92.727 Y100.794 E3.67666
G1 X92.076 Y101.445 E3.69919
G1 X92.006 Y101.515 E3.70161
G1 F3600.000 E2.20161
G92 E0
G1 X92.006 Y73.507 F6000.000
G1 F3600.000 E1.50000
G1 X95.994 Y73.507 F1500.000 E1.59759
G1 X95.994 Y75.515 E1.64675
G1 X95.273 Y74.794 E1.67170
G1 X94.000 Y74.454 E1.70395
G1 X92.727 Y74.794 E1.73620
G1 X92.006 Y75.515 E1.76115
G1 X92.006 Y73.605 E1.80789
G1 X92.006 Y73.507 E1.81030
G1 X91.349 Y72.849 F6000.000
G1 X96.651 Y72.849 F1800.000 E1.94006
G1 X96.651 Y85.303 E2.24482
G1 X96.298 Y85.963 E2.26314
G1 X95.623 Y88.187 E2.32002
G1 X95.395 Y90.499 E2.37689
G1 X95.623 Y92.812 E2.43376
G1 X96.298 Y95.036 E2.49064
G1 X96.651 Y95.696 E2.50897
G1 X96.651 Y107.150 E2.78928
G1 X91.349 Y107.150 E2.91903
G1 X91.349 Y95.535 E3.20329
G1 X83.349 Y91.407 E3.42361
G1 X83.349 Y82.092 E3.65156
G1 X91.349 Y77.964 E3.87188
G1 X91.349 Y72.948 E3.99463
G1 X91.349 Y72.849 E3.99704
G1 X91.918 Y73.178 F6000.000
G1 F3600.000 E2.49704
G92 E0
G1 X92.254 Y94.840 F6000.000
G1 F3600.000 E1.50000
G1 X94.510 Y92.585 F3000.000 E1.57817
G1 X94.427 Y91.738 E1.59903
G1 X91.640 Y94.524 E1.69558
G1 X91.027 Y94.207 E1.71250
G1 X94.343 Y90.891 E1.82742
G1 X94.314 Y89.990 E1.84951
G1 X90.413 Y93.890 E1.98468
G1 X89.799 Y93.574 E2.00160
G1 X94.415 Y88.958 E2.16157
G1 X94.517 Y87.926 E2.18698
G1 X89.185 Y93.257 E2.37173
G1 X88.572 Y92.940 E2.38865
G1 X94.862 Y86.650 E2.60662
G1 X95.267 Y85.314 E2.64083
G1 X87.958 Y92.624 E2.89411
G1 X87.344 Y92.307 E2.91103
G1 X95.546 Y84.105 E3.19525
G1 X95.546 Y83.175 E3.21804
G1 X86.731 Y91.990 E3.52352
G1 X86.117 Y91.673 E3.54044
G1 X95.546 Y82.244 E3.86718
G1 X95.546 Y81.314 E3.88998
G1 X85.503 Y91.357 E4.23799
G1 X84.890 Y91.040 E4.25492
G1 X95.546 Y80.384 E4.62420
G1 X95.266 Y79.733 E4.64154
G1 X84.454 Y90.545 E5.01620
G1 X84.454 Y89.615 E5.03900
G1 X94.086 Y79.983 E5.37278
G1 X93.352 Y79.787 E5.39140
G1 X84.454 Y88.684 E5.69973
G1 X84.454 Y87.754 E5.72253
G1 X92.617 Y79.590 E6.00542
G1 X92.144 Y79.133 E6.02154
G1 X84.454 Y86.824 E6.28804
G1 X84.454 Y85.893 E6.31083
G1 X90.640 Y79.707 E6.52520
G1 X88.717 Y80.699 E6.57821
G1 X84.454 Y84.963 E6.72596
G1 X84.454 Y84.032 E6.74875
G1 X86.795 Y81.691 E6.82988
G1 X84.872 Y82.684 E6.88289
G1 X84.454 Y83.102 E6.89739
G1 F3600.000 E5.39739
G92 E0
G1 X95.546 Y99.922 F6000.000
G1 F3600.000 E1.50000
G1 X95.128 Y100.340 F3000.000 E1.51450
G1 X94.394 Y100.144 E1.53312
G1 X95.546 Y98.992 E1.57306
G1 X95.546 Y98.061 E1.59585
G1 X93.563 Y100.044 E1.66456
G1 X92.454 Y100.223 E1.69209
G1 X95.546 Y97.131 E1.79924
G1 X95.546 Y96.200 E1.82204
G1 X92.454 Y99.293 E1.92919
G1 X92.454 Y98.362 E1.95199
G1 X95.356 Y95.460 E2.05254
G1 X95.116 Y94.769 E2.07046
G1 X92.454 Y97.432 E2.16273
G1 X92.454 Y96.501 E2.18552
G1 X94.900 Y94.056 E2.27028
G1 X94.683 Y93.342 E2.28855
G1 X92.454 Y95.571 E2.36580
G1 F3600.000 E0.86580
G92 E0
G1 X95.612 Y105.868 F6000.000
G1 F3600.000 E1.50000
G1 X95.369 Y106.112 F1200.000 E1.50546
G1 X95.229 Y105.648 E1.51314
G1 X94.766 Y106.112 E1.52353
G1 X94.407 Y105.868 E1.53042
G1 X94.164 Y106.111 E1.53588
G1 X93.836 Y105.868 F6000.000
G1 X93.593 Y106.112 F1200.000 E1.54280
G1 X93.234 Y105.707 E1.55368
G1 X92.829 Y106.112 E1.56518
G1 X92.388 Y105.790 E1.57617
G1 X92.631 Y105.546 E1.58309
G1 F3600.000 E0.08309
G92 E0
G1 X95.612 Y74.209 F6000.000
G1 F3600.000 E1.50000
G1 X95.369 Y74.453 F1200.000 E1.50690
G1 X95.172 Y73.888 E1.51889
G1 X94.768 Y74.292 E1.53034
G1 X94.411 Y73.888 E1.54115
G1 X94.167 Y74.132 E1.54805
G1 X93.833 Y73.889 F6000.000
G1 X93.589 Y74.132 F1200.000 E1.55349
G1 X93.232 Y73.888 E1.56033
G1 X92.769 Y74.351 E1.57068
G1 X92.388 Y74.132 E1.57764
G1 X92.631 Y73.888 E1.58308
G1 F3600.000 E0.08308
G92 E0
G1 Z0.624 F6000.000
G1 X93.067 Y75.384
G1 F3600.000 E1.50000
G1 X94.000 Y75.134 F1398.144 E1.52364
G1 X94.933 Y75.384 E1.54727
G1 X95.616 Y76.066 E1.57091
G1 X95.865 Y76.999 E1.59454
G1 X95.616 Y77.933 E1.61818
G1 X95.412 Y78.137 E1.62525
G1 X94.933 Y78.615 E1.64181
G1 X94.000 Y78.865 E1.66545
G1 X93.067 Y78.615 E1.68909
G1 X92.384 Y77.933 E1.71272
G1 X92.135 Y76.999 E1.73635
G1 X92.384 Y76.066 E1.75999
G1 X92.997 Y75.453 E1.78121
G1 X93.067 Y75.384 E1.78362
G1 X93.124 Y74.729 F6000.000
G1 F3600.000 E0.28362
G92 E0
G1 X94.000 Y101.134 F6000.000
G1 F3600.000 E1.50000
G1 X94.933 Y101.384 F1398.144 E1.52364
G1 X95.137 Y101.588 E1.53071
G1 X95.616 Y102.066 E1.54727
G1 X95.865 Y102.999 E1.57091
G1 X95.616 Y103.933 E1.59454
G1 X94.933 Y104.615 E1.61817
G1 X94.279 Y104.790 E1.63474
G1 X94.000 Y104.865 E1.64181
G1 X93.067 Y104.615 E1.66545
G1 X92.384 Y103.933 E1.68908
G1 X92.135 Y102.999 E1.71272
G1 X92.384 Y102.066 E1.73635
G1 X93.067 Y101.384 E1.75998
G1 X93.905 Y101.160 E1.78121
G1 X94.000 Y101.134 E1.78362
G1 X94.377 Y100.596 F6000.000
G1 X95.994 Y106.493
G1 X92.006 Y106.493 F1398.144 E1.88122
G1 X92.006 Y104.484 E1.93040
G1 X92.727 Y105.205 E1.95535
G1 X94.000 Y105.545 E1.98759
G1 X95.273 Y105.205 E2.01984
G1 X95.994 Y104.484 E2.04479
G1 X95.994 Y106.395 E2.09156
G1 X95.994 Y106.493 E2.09397
G1 F3600.000 E0.59397
G92 E0
G1 X95.994 Y78.484 F6000.000
G1 F3600.000 E1.50000
G1 X95.994 Y85.138 F1677.772 E1.66285
G1 X95.688 Y85.710 E1.67873
G1 X94.975 Y88.058 E1.73877
G1 X94.735 Y90.499 E1.79881
G1 X94.975 Y92.941 E1.85885
G1 X95.688 Y95.289 E1.91890
G1 X95.994 Y95.861 E1.93477
G1 X95.994 Y101.515 E2.07315
G1 X95.273 Y100.794 E2.09810
G1 X94.000 Y100.454 E2.13035
G1 X92.727 Y100.794 E2.16260
G1 X92.006 Y101.515 E2.18754
G1 X92.006 Y95.135 E2.34369
G1 X84.006 Y91.006 E2.56400
G1 X84.006 Y82.493 E2.77236
G1 X91.927 Y78.405 E2.99050
G1 X92.727 Y79.205 E3.01818
G1 X94.000 Y79.545 E3.05043
G1 X95.273 Y79.205 E3.08268
G1 X95.924 Y78.553 E3.10522
G1 X95.994 Y78.484 E3.10763
G1 X92.006 Y73.507 F6000.000
G1 X95.994 Y73.507 F1398.144 E3.20523
G1 X95.994 Y75.515 E3.25438
G1 X95.273 Y74.794 E3.27933
G1 X94.000 Y74.454 E3.31158
G1 X92.727 Y74.794 E3.34383
G1 X92.006 Y75.515 E3.36878
G1 X92.006 Y73.605 E3.41552
G1 X92.006 Y73.507 E3.41794
G1 X91.349 Y72.849 F6000.000
G1 X96.651 Y72.849 F1677.772 E3.54769
G1 X96.651 Y85.303 E3.85245
G1 X96.298 Y85.963 E3.87078
G1 X95.623 Y88.187 E3.92765
G1 X95.395 Y90.499 E3.98453
G1 X95.623 Y92.812 E4.04140
G1 X96.298 Y95.036 E4.09827
G1 X96.651 Y95.696 E4.11660
G1 X96.651 Y107.150 E4.39691
G1 X91.349 Y107.150 E4.52667
G1 X91.349 Y95.535 E4.81093
G1 X83.349 Y91.407 E5.03124
G1 X83.349 Y82.092 E5.25919
G1 X91.349 Y77.964 E5.47951
G1 X91.349 Y72.948 E5.60226
G1 X91.349 Y72.849 E5.60467
G1 X91.918 Y73.178 F6000.000
G1 F3600.000 E4.10467
G92 E0
G1 X94.770 Y87.370 F6000.000
G1 F3600.000 E1.50000
G1 X88.167 Y80.767 F2237.030 E1.72852
G1 X89.075 Y80.299 E1.75352
G1 X95.546 Y84.755 E1.94579
G1 X95.546 Y80.712 E2.04472
G1 X94.627 Y79.793 E2.07655
G1 X92.872 Y100.340 F6000.000
G1 X92.454 Y99.922 F2237.030 E2.09103
G1 X95.546 Y97.147 E2.19270
G1 X92.454 Y94.945 E2.28560
G1 X95.100 Y95.134 E2.35052
G1 X84.454 Y84.488 E2.71899
G1 X84.454 Y83.413 E2.74530
G1 X94.339 Y90.146 E3.03800
G1 X84.454 Y89.609 F6000.000
G1 X90.090 Y93.508 F2237.030 E3.20571
G1 F3600.000 E1.70571
G92 E0
G1 X92.631 Y106.112 F6000.000
G1 F3600.000 E1.50000
G1 X92.388 Y105.868 F1118.515 E1.50546
G1 X92.771 Y105.648 E1.51247
G1 X93.234 Y106.112 E1.52286
G1 X93.593 Y105.868 E1.52975
G1 X93.836 Y106.111 E1.53521
G1 X94.407 Y106.112 F6000.000
G1 X94.164 Y105.868 F1118.515 E1.54213
G1 X94.766 Y105.707 E1.55467
G1 X95.171 Y106.112 E1.56617
G1 X95.612 Y105.790 E1.57716
G1 X95.369 Y105.546 E1.58408
G1 F3600.000 E0.08408
G92 E0
G1 X92.631 Y74.453 F6000.000
G1 F3600.000 E1.50000
G1 X92.388 Y74.209 F1118.515 E1.50690
G1 X92.828 Y73.888 E1.51782
G1 X93.232 Y74.292 E1.52927
G1 X93.589 Y73.888 E1.54009
G1 X93.833 Y74.132 E1.54698
G1 X94.411 Y74.132 F6000.000
G1 X94.167 Y73.888 F1118.515 E1.55243
G1 X94.768 Y73.888 E1.56193
G1 X95.231 Y74.351 E1.57228
G1 X95.612 Y74.132 E1.57924
G1 X95.369 Y73.888 E1.58468
M106 S255
G1 F3600.000 E0.08468
G92 E0
G1 Z0.864 F6000.000
G1 X94.933 Y75.384
G1 F3600.000 E1.50000
G1 X95.616 Y76.066 F1445.452 E1.52363
G1 X95.865 Y76.999 E1.54727
G1 X95.616 Y77.933 E1.57091
G1 X94.933 Y78.615 E1.59454
G1 X94.000 Y78.865 E1.61817
G1 X93.067 Y78.615 E1.64181
G1 X92.384 Y77.933 E1.66544
G1 X92.135 Y76.999 E1.68908
G1 X92.384 Y76.066 E1.71272
G1 X93.067 Y75.384 E1.73635
G1 X94.000 Y75.134 E1.75998
G1 X94.838 Y75.358 E1.78121
G1 X94.933 Y75.384 E1.78362
G1 X95.529 Y75.106 F6000.000
G1 F3600.000 E0.28362
G92 E0
G1 X94.000 Y101.134 F6000.000
G1 F3600.000 E1.50000
